X:14787
T:Salamanca Hornpipe. FK.12
M:C
L:1/8
Q:160
C:"Kennedy MS no.1"
S:Kidson's H'pipe MS,early 20thC.
R:Hornpipe
O:England
A:Leeds
N:Yep, just 8 Bars..
Z:vmp.John Bagnall
K:D
AG | FDFA d2 (df) | edcB A2 dc | BAGF E2 (AG) | FGEF D2 AG |!
 FDFA d2 df| edcB A2 (AG) | FAdg fdec | d2 d2 d2 ||
